src/assets/images/repsImage.svg

<svg id="b77c1bc9-86a3-4433-a09e-cd4333e7b185" data-name="Layer 2" xmlns="http://www.w3.org/2000/svg" viewBox="0 0 133.46 189.57"><defs><style>.a06b6d53-7210-4e75-907c-e631df6c4763{fill:#7ccad8}.a1fe7cfe-c2ac-44fc-99b2-f4f71fe7ce3d{fill:#b7cf49}.e6b572f4-5df8-4088-b5e9-3c18c5f5b172{fill:#ece676}.bfd643a0-9c97-4f3c-88aa-fe2120cee4b9{fill:#f8f4bb}.ac266fdc-9c34-495d-8904-f470b9e12b85{fill:#d1c954}.a55cf77f-e05e-4809-9e3a-f310ad334c04{fill:#404b75}</style></defs><path class="a06b6d53-7210-4e75-907c-e631df6c4763" d="M731.12 417.41a1.61 1.61 0 0 1-1.61-1.61v-11.13a1.61 1.61 0 1 1 3.22 0v11.13a1.61 1.61 0 0 1-1.61 1.61Z" transform="translate(-627.59 -403.06)"/><path class="a06b6d53-7210-4e75-907c-e631df6c4763" d="M736.68 411.85h-11.13a1.62 1.62 0 0 1 0-3.23h11.13a1.62 1.62 0 1 1 0 3.23Z" transform="translate(-627.59 -403.06)"/><path d="M633.89 474.33a6.3 6.3 0 1 1 6.3-6.3 6.31 6.31 0 0 1-6.3 6.3Zm0-9.38A3.08 3.08 0 1 0 637 468a3.08 3.08 0 0 0-3.11-3Z" transform="translate(-627.59 -403.06)" style="fill:#dd788c"/><path class="a1fe7cfe-c2ac-44fc-99b2-f4f71fe7ce3d" d="M759.43 486.22h-3.87a1.62 1.62 0 0 1 0-3.23h3.87a1.62 1.62 0 0 1 0 3.23ZM750.08 486.22h-3.87a1.62 1.62 0 0 1 0-3.23h3.87a1.62 1.62 0 0 1 0 3.23ZM752.82 492.83a1.61 1.61 0 0 1-1.61-1.61v-3.87a1.61 1.61 0 1 1 3.22 0v3.87a1.61 1.61 0 0 1-1.61 1.61ZM752.82 483.48a1.61 1.61 0 0 1-1.61-1.61V478a1.61 1.61 0 1 1 3.22 0v3.87a1.61 1.61 0 0 1-1.61 1.61Z" transform="translate(-627.59 -403.06)"/><path class="e6b572f4-5df8-4088-b5e9-3c18c5f5b172" d="M650.29 591a11.72 11.72 0 0 1-11.72-11.72v-66.75H662v66.77a11.72 11.72 0 0 1-11.71 11.7Z" transform="translate(-627.59 -403.06)"/><path class="bfd643a0-9c97-4f3c-88aa-fe2120cee4b9" d="M645.8 579.3v-66.77h-7.23v66.77a11.72 11.72 0 0 0 11.72 11.7c-2.48 0-4.49-5.23-4.49-11.7Z" transform="translate(-627.59 -403.06)"/><path class="ac266fdc-9c34-495d-8904-f470b9e12b85" d="M654.78 512.53v66.77c0 6.47-2 11.72-4.49 11.72A11.72 11.72 0 0 0 662 579.3v-66.77Z" transform="translate(-627.59 -403.06)"/><path class="a55cf77f-e05e-4809-9e3a-f310ad334c04" d="M650.29 592.63A13.35 13.35 0 0 1 637 579.3v-66.77a1.62 1.62 0 0 1 1.61-1.62H662a1.63 1.63 0 0 1 1.62 1.62v66.77a13.35 13.35 0 0 1-13.33 13.33Zm-10.1-78.49v65.16a10.1 10.1 0 0 0 20.2 0v-65.16Z" transform="translate(-627.59 -403.06)"/><path class="a55cf77f-e05e-4809-9e3a-f310ad334c04" d="M669.62 514.14H631a1.62 1.62 0 0 1 0-3.23h38.66a1.62 1.62 0 0 1 0 3.23ZM639 544a1.58 1.58 0 0 1-1.07-.41 1.61 1.61 0 0 1-.13-2.28l4.64-5.18a1.61 1.61 0 0 1 2.4 2.15l-4.63 5.19a1.63 1.63 0 0 1-1.21.53ZM647.7 534.23a1.66 1.66 0 0 1-1.08-.41 1.61 1.61 0 0 1-.12-2.28l14.3-16a1.61 1.61 0 0 1 2.4 2.15l-14.3 16a1.6 1.6 0 0 1-1.2.54ZM639 563.23a1.58 1.58 0 0 1-1.07-.41 1.6 1.6 0 0 1-.13-2.27l23-25.76a1.61 1.61 0 0 1 2.4 2.15l-23 25.76a1.63 1.63 0 0 1-1.2.53ZM639 582.48a1.62 1.62 0 0 1-1.2-2.69l15.12-16.9a1.61 1.61 0 0 1 2.41 2.15l-15.12 16.9a1.6 1.6 0 0 1-1.21.54ZM657.64 561.59a1.58 1.58 0 0 1-1.07-.41 1.61 1.61 0 0 1-.13-2.27l4.36-4.91a1.61 1.61 0 1 1 2.4 2.15l-4.35 4.87a1.63 1.63 0 0 1-1.21.57Z" transform="translate(-627.59 -403.06)"/><path class="e6b572f4-5df8-4088-b5e9-3c18c5f5b172" d="M737 591a11.72 11.72 0 0 1-11.72-11.72v-66.75h23.43v66.77A11.72 11.72 0 0 1 737 591Z" transform="translate(-627.59 -403.06)"/><path class="bfd643a0-9c97-4f3c-88aa-fe2120cee4b9" d="M732.49 579.3v-66.77h-7.23v66.77A11.72 11.72 0 0 0 737 591c-2.5 0-4.51-5.23-4.51-11.7Z" transform="translate(-627.59 -403.06)"/><path class="ac266fdc-9c34-495d-8904-f470b9e12b85" d="M741.47 512.53v66.77c0 6.47-2 11.72-4.49 11.72a11.72 11.72 0 0 0 11.71-11.72v-66.77Z" transform="translate(-627.59 -403.06)"/><path class="a55cf77f-e05e-4809-9e3a-f310ad334c04" d="M737 592.63a13.35 13.35 0 0 1-13.33-13.33v-66.77a1.62 1.62 0 0 1 1.61-1.62h23.43a1.63 1.63 0 0 1 1.62 1.62v66.77A13.35 13.35 0 0 1 737 592.63Zm-10.1-78.49v65.16a10.1 10.1 0 0 0 20.2 0v-65.16Z" transform="translate(-627.59 -403.06)"/><path class="a55cf77f-e05e-4809-9e3a-f310ad334c04" d="M756.31 514.14h-38.66a1.62 1.62 0 1 1 0-3.23h38.66a1.62 1.62 0 0 1 0 3.23ZM725.65 544a1.58 1.58 0 0 1-1.07-.41 1.61 1.61 0 0 1-.13-2.28l4.64-5.18a1.61 1.61 0 0 1 2.4 2.15l-4.63 5.19a1.63 1.63 0 0 1-1.21.53ZM734.39 534.23a1.66 1.66 0 0 1-1.08-.41 1.61 1.61 0 0 1-.12-2.28l14.3-16a1.61 1.61 0 0 1 2.4 2.15l-14.3 16a1.6 1.6 0 0 1-1.2.54ZM725.65 563.23a1.58 1.58 0 0 1-1.07-.41 1.6 1.6 0 0 1-.13-2.27l23-25.76a1.61 1.61 0 0 1 2.4 2.15l-23 25.76a1.63 1.63 0 0 1-1.2.53ZM725.65 582.48a1.62 1.62 0 0 1-1.2-2.69l15.12-16.9A1.61 1.61 0 0 1 742 565l-15.12 16.9a1.6 1.6 0 0 1-1.23.58ZM744.33 561.59a1.58 1.58 0 0 1-1.07-.41 1.61 1.61 0 0 1-.13-2.27l4.36-4.87a1.61 1.61 0 1 1 2.4 2.15l-4.35 4.87a1.63 1.63 0 0 1-1.21.53Z" transform="translate(-627.59 -403.06)"/><path class="a55cf77f-e05e-4809-9e3a-f310ad334c04" d="M693.63 555.14a13.54 13.54 0 0 1-13.52-13.52V493a14 14 0 0 0-28 0v19.53a1.62 1.62 0 0 1-3.23 0V493a17.24 17.24 0 0 1 34.47 0v48.62a10.3 10.3 0 1 0 20.59 0v-58.43a23.05 23.05 0 0 0-23-23h-17.45a23.83 23.83 0 0 1 0-47.65H692a46.79 46.79 0 0 1 46.71 46.56l.06 16.75v36.71a1.62 1.62 0 0 1-3.23 0V459.08A43.57 43.57 0 0 0 692 415.74h-28.51a20.6 20.6 0 1 0 0 41.19h17.41a26.29 26.29 0 0 1 26.26 26.26v58.43a13.54 13.54 0 0 1-13.53 13.52Z" transform="translate(-627.59 -403.06)"/><path d="M682.7 437.91h-6.86a1.61 1.61 0 0 1-1.61-1.61v-6.86a1.62 1.62 0 0 1 1.61-1.62h6.86a1.62 1.62 0 0 1 1.61 1.62v6.86a1.61 1.61 0 0 1-1.61 1.61Zm-5.25-3.23h3.64v-3.63h-3.64Z" transform="translate(-627.59 -403.06)" style="fill:#a0c5ea"/></svg>

<svg id="b77c1bc9-86a3-4433-a09e-cd4333e7b185" data-name="Layer 2" xmlns="http://www.w3.org/2000/svg" viewBox="0 0 133.46 189.57"><defs><style>.a06b6d53-7210-4e75-907c-e631df6c4763{fill:#7ccad8;}.a6b39f10-896d-4414-b1aa-8dc5e2234a7a{fill:#dd788c;}.a1fe7cfe-c2ac-44fc-99b2-f4f71fe7ce3d{fill:#b7cf49;}.e6b572f4-5df8-4088-b5e9-3c18c5f5b172{fill:#ece676;}.bfd643a0-9c97-4f3c-88aa-fe2120cee4b9{fill:#f8f4bb;}.ac266fdc-9c34-495d-8904-f470b9e12b85{fill:#d1c954;}.a55cf77f-e05e-4809-9e3a-f310ad334c04{fill:#404b75;}.bfc4f4e1-11ce-4601-80bc-fbf430926cd3{fill:#a0c5ea;}</style></defs><title>repsImage</title><path class="a06b6d53-7210-4e75-907c-e631df6c4763" d="M731.12,417.41a1.61,1.61,0,0,1-1.61-1.61V404.67a1.61,1.61,0,1,1,3.22,0V415.8A1.61,1.61,0,0,1,731.12,417.41Z" transform="translate(-627.59 -403.06)"/><path class="a06b6d53-7210-4e75-907c-e631df6c4763" d="M736.68,411.85H725.55a1.62,1.62,0,0,1,0-3.23h11.13a1.62,1.62,0,1,1,0,3.23Z" transform="translate(-627.59 -403.06)"/><path class="a6b39f10-896d-4414-b1aa-8dc5e2234a7a" d="M633.89,474.33a6.3,6.3,0,1,1,6.3-6.3A6.31,6.31,0,0,1,633.89,474.33Zm0-9.38A3.08,3.08,0,1,0,637,468,3.08,3.08,0,0,0,633.89,465Z" transform="translate(-627.59 -403.06)"/><path class="a1fe7cfe-c2ac-44fc-99b2-f4f71fe7ce3d" d="M759.43,486.22h-3.87a1.62,1.62,0,0,1,0-3.23h3.87a1.62,1.62,0,0,1,0,3.23Z" transform="translate(-627.59 -403.06)"/><path class="a1fe7cfe-c2ac-44fc-99b2-f4f71fe7ce3d" d="M750.08,486.22h-3.87a1.62,1.62,0,0,1,0-3.23h3.87a1.62,1.62,0,0,1,0,3.23Z" transform="translate(-627.59 -403.06)"/><path class="a1fe7cfe-c2ac-44fc-99b2-f4f71fe7ce3d" d="M752.82,492.83a1.61,1.61,0,0,1-1.61-1.61v-3.87a1.61,1.61,0,1,1,3.22,0v3.87A1.61,1.61,0,0,1,752.82,492.83Z" transform="translate(-627.59 -403.06)"/><path class="a1fe7cfe-c2ac-44fc-99b2-f4f71fe7ce3d" d="M752.82,483.48a1.61,1.61,0,0,1-1.61-1.61V478a1.61,1.61,0,1,1,3.22,0v3.87A1.61,1.61,0,0,1,752.82,483.48Z" transform="translate(-627.59 -403.06)"/><path class="e6b572f4-5df8-4088-b5e9-3c18c5f5b172" d="M650.29,591a11.72,11.72,0,0,1-11.72-11.72V512.53H662V579.3A11.72,11.72,0,0,1,650.29,591Z" transform="translate(-627.59 -403.06)"/><path class="bfd643a0-9c97-4f3c-88aa-fe2120cee4b9" d="M645.8,579.3V512.53h-7.23V579.3A11.72,11.72,0,0,0,650.29,591C647.81,591,645.8,585.77,645.8,579.3Z" transform="translate(-627.59 -403.06)"/><path class="ac266fdc-9c34-495d-8904-f470b9e12b85" d="M654.78,512.53V579.3c0,6.47-2,11.72-4.49,11.72A11.72,11.72,0,0,0,662,579.3V512.53Z" transform="translate(-627.59 -403.06)"/><path class="a55cf77f-e05e-4809-9e3a-f310ad334c04" d="M650.29,592.63A13.35,13.35,0,0,1,637,579.3V512.53a1.62,1.62,0,0,1,1.61-1.62H662a1.63,1.63,0,0,1,1.62,1.62V579.3A13.35,13.35,0,0,1,650.29,592.63Zm-10.1-78.49V579.3a10.1,10.1,0,0,0,20.2,0V514.14Z" transform="translate(-627.59 -403.06)"/><path class="a55cf77f-e05e-4809-9e3a-f310ad334c04" d="M669.62,514.14H631a1.62,1.62,0,0,1,0-3.23h38.66a1.62,1.62,0,0,1,0,3.23Z" transform="translate(-627.59 -403.06)"/><path class="a55cf77f-e05e-4809-9e3a-f310ad334c04" d="M639,544a1.58,1.58,0,0,1-1.07-.41,1.61,1.61,0,0,1-.13-2.28l4.64-5.18a1.61,1.61,0,0,1,2.4,2.15l-4.63,5.19A1.63,1.63,0,0,1,639,544Z" transform="translate(-627.59 -403.06)"/><path class="a55cf77f-e05e-4809-9e3a-f310ad334c04" d="M647.7,534.23a1.66,1.66,0,0,1-1.08-.41,1.61,1.61,0,0,1-.12-2.28l14.3-16a1.61,1.61,0,0,1,2.4,2.15l-14.3,16A1.6,1.6,0,0,1,647.7,534.23Z" transform="translate(-627.59 -403.06)"/><path class="a55cf77f-e05e-4809-9e3a-f310ad334c04" d="M639,563.23a1.58,1.58,0,0,1-1.07-.41,1.6,1.6,0,0,1-.13-2.27l23-25.76a1.61,1.61,0,0,1,2.4,2.15l-23,25.76A1.63,1.63,0,0,1,639,563.23Z" transform="translate(-627.59 -403.06)"/><path class="a55cf77f-e05e-4809-9e3a-f310ad334c04" d="M639,582.48a1.62,1.62,0,0,1-1.2-2.69l15.12-16.9a1.61,1.61,0,0,1,2.41,2.15l-15.12,16.9A1.6,1.6,0,0,1,639,582.48Z" transform="translate(-627.59 -403.06)"/><path class="a55cf77f-e05e-4809-9e3a-f310ad334c04" d="M657.64,561.59a1.58,1.58,0,0,1-1.07-.41,1.61,1.61,0,0,1-.13-2.27L660.8,554a1.61,1.61,0,1,1,2.4,2.15l-4.35,4.87A1.63,1.63,0,0,1,657.64,561.59Z" transform="translate(-627.59 -403.06)"/><path class="e6b572f4-5df8-4088-b5e9-3c18c5f5b172" d="M737,591a11.72,11.72,0,0,1-11.72-11.72V512.53h23.43V579.3A11.72,11.72,0,0,1,737,591Z" transform="translate(-627.59 -403.06)"/><path class="bfd643a0-9c97-4f3c-88aa-fe2120cee4b9" d="M732.49,579.3V512.53h-7.23V579.3A11.72,11.72,0,0,0,737,591C734.5,591,732.49,585.77,732.49,579.3Z" transform="translate(-627.59 -403.06)"/><path class="ac266fdc-9c34-495d-8904-f470b9e12b85" d="M741.47,512.53V579.3c0,6.47-2,11.72-4.49,11.72a11.72,11.72,0,0,0,11.71-11.72V512.53Z" transform="translate(-627.59 -403.06)"/><path class="a55cf77f-e05e-4809-9e3a-f310ad334c04" d="M737,592.63a13.35,13.35,0,0,1-13.33-13.33V512.53a1.62,1.62,0,0,1,1.61-1.62h23.43a1.63,1.63,0,0,1,1.62,1.62V579.3A13.35,13.35,0,0,1,737,592.63Zm-10.1-78.49V579.3a10.1,10.1,0,0,0,20.2,0V514.14Z" transform="translate(-627.59 -403.06)"/><path class="a55cf77f-e05e-4809-9e3a-f310ad334c04" d="M756.31,514.14H717.65a1.62,1.62,0,1,1,0-3.23h38.66a1.62,1.62,0,0,1,0,3.23Z" transform="translate(-627.59 -403.06)"/><path class="a55cf77f-e05e-4809-9e3a-f310ad334c04" d="M725.65,544a1.58,1.58,0,0,1-1.07-.41,1.61,1.61,0,0,1-.13-2.28l4.64-5.18a1.61,1.61,0,0,1,2.4,2.15l-4.63,5.19A1.63,1.63,0,0,1,725.65,544Z" transform="translate(-627.59 -403.06)"/><path class="a55cf77f-e05e-4809-9e3a-f310ad334c04" d="M734.39,534.23a1.66,1.66,0,0,1-1.08-.41,1.61,1.61,0,0,1-.12-2.28l14.3-16a1.61,1.61,0,0,1,2.4,2.15l-14.3,16A1.6,1.6,0,0,1,734.39,534.23Z" transform="translate(-627.59 -403.06)"/><path class="a55cf77f-e05e-4809-9e3a-f310ad334c04" d="M725.65,563.23a1.58,1.58,0,0,1-1.07-.41,1.6,1.6,0,0,1-.13-2.27l23-25.76a1.61,1.61,0,0,1,2.4,2.15l-23,25.76A1.63,1.63,0,0,1,725.65,563.23Z" transform="translate(-627.59 -403.06)"/><path class="a55cf77f-e05e-4809-9e3a-f310ad334c04" d="M725.65,582.48a1.62,1.62,0,0,1-1.2-2.69l15.12-16.9A1.61,1.61,0,0,1,742,565l-15.12,16.9A1.6,1.6,0,0,1,725.65,582.48Z" transform="translate(-627.59 -403.06)"/><path class="a55cf77f-e05e-4809-9e3a-f310ad334c04" d="M744.33,561.59a1.58,1.58,0,0,1-1.07-.41,1.61,1.61,0,0,1-.13-2.27l4.36-4.87a1.61,1.61,0,1,1,2.4,2.15l-4.35,4.87A1.63,1.63,0,0,1,744.33,561.59Z" transform="translate(-627.59 -403.06)"/><path class="a55cf77f-e05e-4809-9e3a-f310ad334c04" d="M693.63,555.14a13.54,13.54,0,0,1-13.52-13.52V493a14,14,0,0,0-28,0v19.53a1.62,1.62,0,0,1-3.23,0V493a17.24,17.24,0,0,1,34.47,0v48.62a10.3,10.3,0,1,0,20.59,0V483.19a23.05,23.05,0,0,0-23-23H663.49a23.83,23.83,0,0,1,0-47.65H692a46.79,46.79,0,0,1,46.71,46.56l.06,16.75v36.71a1.62,1.62,0,0,1-3.23,0V475.82l0-16.74A43.57,43.57,0,0,0,692,415.74H663.49a20.6,20.6,0,1,0,0,41.19H680.9a26.29,26.29,0,0,1,26.26,26.26v58.43A13.54,13.54,0,0,1,693.63,555.14Z" transform="translate(-627.59 -403.06)"/><path class="bfc4f4e1-11ce-4601-80bc-fbf430926cd3" d="M682.7,437.91h-6.86a1.61,1.61,0,0,1-1.61-1.61v-6.86a1.62,1.62,0,0,1,1.61-1.62h6.86a1.62,1.62,0,0,1,1.61,1.62v6.86A1.61,1.61,0,0,1,682.7,437.91Zm-5.25-3.23h3.64v-3.63h-3.64Z" transform="translate(-627.59 -403.06)"/></svg>
